dist/images/icons/soc-1.svg

<svg width="16" height="16" viewBox="0 0 16 16" fill="none" xmlns="http://www.w3.org/2000/svg">
<path d="M15.5653 11.7424L13.3325 9.50954C12.535 8.71209 11.1793 9.0311 10.8604 10.0678C10.6211 10.7855 9.82369 11.1842 9.10599 11.0247C7.5111 10.626 5.358 8.5526 4.95927 6.87797C4.72004 6.16024 5.19851 5.36279 5.91621 5.12359C6.95289 4.80461 7.27187 3.44895 6.47442 2.65151L4.24157 0.418659C3.60362 -0.139553 2.64668 -0.139553 2.08847 0.418659L0.573324 1.93381C-0.941823 3.5287 0.732813 7.75516 4.48081 11.5032C8.2288 15.2511 12.4553 17.0056 14.0502 15.4106L15.5653 13.8955C16.1235 13.2575 16.1235 12.3006 15.5653 11.7424Z" fill="#2B2A29"/>
</svg>

<svg width="16" height="16" fill="none" xmlns="http://www.w3.org/2000/svg"><path d="M15.565 11.742L13.333 9.51c-.798-.798-2.154-.479-2.473.558-.239.718-1.036 1.116-1.754.957-1.595-.399-3.748-2.472-4.147-4.147-.239-.718.24-1.515.957-1.754 1.037-.32 1.356-1.675.558-2.472L4.242.419c-.638-.559-1.595-.559-2.154 0L.573 1.934c-1.515 1.595.16 5.821 3.908 9.57 3.748 3.747 7.974 5.502 9.57 3.907l1.514-1.515c.559-.639.559-1.595 0-2.154z" fill="#2B2A29"/></svg>
